packages/ffe-icons/icons/open/300/sm/air_purifier.svg

<svg xmlns="http://www.w3.org/2000/svg" height="20" viewBox="0 -960 960 960" width="20"><path d="M164.001-228.309V-672q0-51.749 36.125-87.874 36.125-36.125 87.874-36.125h288q51.749 0 87.874 36.125 36.125 36.125 36.125 87.874v22.001q0 11.049-7.63 18.524-7.63 7.475-18.908 7.475-10.615 0-18.038-7.231-7.423-7.23-7.423-18.768V-672q0-29.7-21.15-50.85Q605.7-744 576-744H288q-29.7 0-50.85 21.15Q216-701.7 216-672v443.691q0 5.385 3.462 8.847 3.462 3.462 8.847 3.462h407.382q5.385 0 8.847-3.462 3.462-3.462 3.462-8.847v-33.692q0-11.049 7.418-18.524Q662.836-288 673.802-288q10.966 0 18.581 7.505 7.616 7.506 7.616 18.6v33.799q0 26.614-18.891 45.354-18.89 18.741-45.417 18.741H228.309q-26.527 0-45.417-18.891-18.891-18.89-18.891-45.417ZM432-356.001q51.749 0 87.874-36.125 36.125-36.125 36.125-87.874 0-51.749-36.125-87.874-36.125-36.125-87.874-36.125-51.749 0-87.874 36.125-36.125 36.125-36.125 87.874 0 51.749 36.125 87.874 36.125 36.125 87.874 36.125ZM431.788-408Q402-408 381-429.212q-21-21.213-21-51Q360-510 381.212-531q21.213-21 51-21Q462-552 483-530.788q21 21.213 21 51Q504-450 482.788-429q-21.213 21-51 21Zm411.21-168.197q0 10.966-7.475 18.581t-18.524 7.615q-13.693 0-26.701 6.154-13.009 6.154-21.531 19.231-18.461 23.692-39.563 35.154-21.102 11.461-48.014 11.461-11.689 0-19.94-6.923-8.251-6.922-8.251-18.585 0-11.662 7.902-19.076 7.903-7.414 19.098-7.414 14.16 0 26.119-5.654 11.958-5.654 21.112-19.731 18.461-24.692 40.956-35.654 22.494-10.961 48.813-10.961 11.049 0 18.524 7.418 7.475 7.418 7.475 18.384Zm0 143.706q0 11.662-7.902 19.076-7.903 7.414-19.097 7.414-14.161 0-26.12 6.154-11.958 6.154-21.112 19.231-18.461 24.692-39.563 35.654-21.102 10.961-48.014 10.961-11.689 0-19.94-6.923-8.251-6.922-8.251-18.585 0-11.662 8.573-19.076t19.427-7.414q14.508 0 25.793-5.654 11.284-5.654 20.438-19.731 18.461-23.923 40.225-35.269 21.763-11.346 48.044-11.346 11.353 0 19.426 6.923 8.073 6.922 8.073 18.585ZM648-216H216h432-49.002H648Z"/></svg>

<svg xmlns="http://www.w3.org/2000/svg" height="20" viewBox="0 -960 960 960" width="20"><path d="M164-228.31V-672q0-51.75 36.13-87.87Q236.25-796 288-796h288q51.75 0 87.87 36.13Q700-723.75 700-672v22q0 11.05-7.63 18.53-7.63 7.47-18.91 7.47-10.61 0-18.04-7.23Q648-638.46 648-650v-22q0-29.7-21.15-50.85Q605.7-744 576-744H288q-29.7 0-50.85 21.15Q216-701.7 216-672v443.69q0 5.39 3.46 8.85t8.85 3.46h407.38q5.39 0 8.85-3.46t3.46-8.85V-262q0-11.05 7.42-18.53 7.42-7.47 18.38-7.47 10.97 0 18.58 7.51 7.62 7.5 7.62 18.6v33.79q0 26.62-18.89 45.36T635.69-164H228.31q-26.53 0-45.42-18.89T164-228.31ZM432-356q51.75 0 87.87-36.13Q556-428.25 556-480q0-51.75-36.13-87.87Q483.75-604 432-604q-51.75 0-87.87 36.13Q308-531.75 308-480q0 51.75 36.13 87.87Q380.25-356 432-356Zm-.21-52Q402-408 381-429.21t-21-51Q360-510 381.21-531t51-21Q462-552 483-530.79t21 51Q504-450 482.79-429t-51 21ZM843-576.2q0 10.97-7.48 18.58Q828.05-550 817-550q-13.69 0-26.7 6.15-13.01 6.16-21.53 19.23-18.46 23.7-39.57 35.16Q708.1-478 681.19-478q-11.69 0-19.94-6.92-8.25-6.93-8.25-18.59t7.9-19.08Q668.8-530 680-530q14.16 0 26.12-5.65 11.96-5.66 21.11-19.73 18.46-24.7 40.96-35.66Q790.68-602 817-602q11.05 0 18.52 7.42 7.48 7.42 7.48 18.38Zm0 143.71q0 11.66-7.9 19.08Q827.19-406 816-406q-14.16 0-26.12 6.15-11.96 6.16-21.11 19.23-18.46 24.7-39.57 35.66Q708.1-334 681.19-334q-11.69 0-19.94-6.92-8.25-6.93-8.25-18.59t8.57-19.08Q670.15-386 681-386q14.51 0 25.79-5.65 11.29-5.66 20.44-19.73 18.46-23.93 40.22-35.27Q789.22-458 815.5-458q11.35 0 19.42 6.92 8.08 6.93 8.08 18.59ZM648-216H216h432-49 49Z"/></svg>
